SVG/chevron-circle-left.svg

<?xml version="1.0" encoding="utf-8"?>
<!-- Generated by IcoMoon.io -->
<!DOCTYPE svg PUBLIC "-//W3C//DTD SVG 1.1//EN" "http://www.w3.org/Graphics/SVG/1.1/DTD/svg11.dtd">
<svg version="1.1" xmlns="http://www.w3.org/2000/svg" xmlns:xlink="http://www.w3.org/1999/xlink" width="12" height="14" viewBox="0 0 12 14">
<path fill="#444444" d="M7.102 10.898l0.797-0.797q0.148-0.148 0.148-0.352t-0.148-0.352l-2.398-2.398 2.398-2.398q0.148-0.148 0.148-0.352t-0.148-0.352l-0.797-0.797q-0.148-0.148-0.352-0.148t-0.352 0.148l-3.547 3.547q-0.148 0.148-0.148 0.352t0.148 0.352l3.547 3.547q0.148 0.148 0.352 0.148t0.352-0.148zM12 7q0 1.633-0.805 3.012t-2.184 2.184-3.012 0.805-3.012-0.805-2.184-2.184-0.805-3.012 0.805-3.012 2.184-2.184 3.012-0.805 3.012 0.805 2.184 2.184 0.805 3.012z"></path>
</svg>

<svg xmlns="http://www.w3.org/2000/svg" viewBox="0 0 12 14"><path d="M7.102 10.898L7.9 10.1q.147-.147.147-.35T7.9 9.396L5.5 7l2.4-2.4q.147-.147.147-.35T7.9 3.896L7.1 3.1q-.148-.148-.352-.148t-.352.148L2.85 6.647q-.147.148-.147.352t.148.35L6.4 10.9q.148.148.352.148t.352-.148zM12 7q0 1.633-.805 3.012T9.01 12.196 6 13t-3.013-.804-2.184-2.184T-.002 7t.805-3.012 2.184-2.184T6 1t3.01.804 2.185 2.184T12 7z" /></svg>
